icons/svg/soundcloud.svg

﻿<?xml version="1.0" encoding="utf-8"?>
<!DOCTYPE svg PUBLIC "-//W3C//DTD SVG 1.1//EN" "http://www.w3.org/Graphics/SVG/1.1/DTD/svg11.dtd">
<svg xmlns="http://www.w3.org/2000/svg" xmlns:xlink="http://www.w3.org/1999/xlink" version="1.1" baseProfile="full" width="24" height="24" viewBox="0 0 24.00 24.00" enable-background="new 0 0 24.00 24.00" xml:space="preserve">
	<path fill="#000000" fill-opacity="1" stroke-width="0.2" stroke-linejoin="round" d="M 11.5588,8.87467L 11.5588,17L 20.3226,17L 20.3226,16.9902C 22.1679,16.8729 23,15.7265 23,14.3307C 23,12.8542 21.8848,11.6613 20.3837,11.6613C 19.9984,11.6613 19.6814,11.7396 19.3463,11.8838C 19.106,9.542 17.1189,7.71111 14.6723,7.71111C 13.4757,7.71111 12.3877,8.15109 11.5588,8.87467 Z M 10.6832,9.89154C 10.382,9.7131 10.0579,9.57378 9.7137,9.47844L 9.7137,17L 11.0973,17L 11.0973,9.33667C 10.9459,9.51022 10.8073,9.69845 10.6832,9.89154 Z M 8.3294,9.35132L 8.3294,17L 9.25243,17L 9.25243,9.38066C 9.06323,9.35132 8.86841,9.33912 8.67041,9.33912C 8.5548,9.33912 8.44112,9.34398 8.3294,9.35132 Z M 6.48484,9.99666L 6.48484,17L 7.40713,17L 7.40713,9.54444C 7.07761,9.65443 6.76789,9.80843 6.48484,9.99666 Z M 4.83239,12.5218C 4.76932,12.4827 4.70675,12.4436 4.63952,12.4093L 4.63952,17L 5.56181,17L 5.56181,10.862C 5.19465,11.3411 4.93872,11.9058 4.83239,12.5218 Z M 2.7947,12.2187L 2.7947,16.9071C 3.01274,16.9682 3.24251,17 3.4794,17L 3.71748,17L 3.71748,12.1356C 3.63778,12.1282 3.55859,12.1233 3.47792,12.1233C 3.24056,12.1233 3.01177,12.1575 2.7947,12.2187 Z M 0.999994,14.5629C 0.999994,15.306 1.33854,15.9709 1.87217,16.4207L 1.87217,12.7051C 1.33854,13.1524 0.999994,13.8198 0.999994,14.5629 Z "/>
</svg>

<svg xmlns="http://www.w3.org/2000/svg" version="1.1" baseProfile="full" width="24" height="24" viewBox="0 0 24.00 24.00" xml:space="preserve"><path fill="#000" fill-opacity="1" stroke-width=".2" stroke-linejoin="round" d="M11.56 8.875V17h8.763v-.01C22.168 16.873 23 15.727 23 14.33c0-1.476-1.115-2.67-2.616-2.67-.386 0-.703.08-1.038.224-.24-2.342-2.227-4.173-4.674-4.173-1.196 0-2.284.44-3.113 1.165zm-.877 1.017c-.3-.18-.625-.318-.97-.414V17h1.384V9.337c-.15.173-.29.36-.414.555zm-2.354-.54V17h.922V9.38c-.19-.03-.384-.04-.582-.04-.115 0-.23.004-.34.01zm-1.845.645V17h.922V9.544c-.33.11-.64.264-.922.453zm-1.653 2.525c-.063-.04-.125-.078-.192-.113V17h.922v-6.138c-.367.48-.623 1.044-.73 1.66zm-2.037-.303v4.687c.218.06.448.093.684.093h.237v-4.864c-.08-.008-.158-.013-.24-.013-.236 0-.465.035-.682.096zM1 14.562c0 .743.34 1.408.872 1.858v-3.715C1.34 13.152 1 13.82 1 14.563z"/></svg>
